Gruvbox-Material-Icons/actions/16/stroke-cap-square.svg

<svg width="16" height="16" version="1.1" xmlns="http://www.w3.org/2000/svg">
  <defs>
    <style id="current-color-scheme" type="text/css">.ColorScheme-Text { color:#ebdbb2; } .ColorScheme-Highlight { color:#458588; }</style>
  </defs>
  <path class="ColorScheme-Text" d="m4 4h8v12h-8z" fill="currentColor" opacity=".3"/>
  <path class="ColorScheme-Text" d="m4 0v16h1v-11h2 2 2v11h1v-16h-8z" fill="currentColor"/>
</svg>

<svg xmlns="http://www.w3.org/2000/svg" width="16" height="16" version="1.1">
 <defs>
  <style id="current-color-scheme" type="text/css">
   .ColorScheme-Text { color:#ebdbb2; } .ColorScheme-Highlight { color:#458588; }
  </style>
 </defs>
 <path style="opacity:.30;fill:currentColor" class="ColorScheme-Text" d="M 4,4 H 12 V 16 H 4 Z"/>
 <path style="fill:currentColor" class="ColorScheme-Text" d="M 4 0 L 4 16 L 5 16 L 5 5 L 7 5 L 9 5 L 11 5 L 11 16 L 12 16 L 12 0 L 4 0 z"/>
</svg>
